X:16
T:No.116 Ril Sheain Mhosai
M:4/4
L:1/8
C:reel
K:D
dAAA FDAG|FDAF E2 (3ABc|dAAG FDAG|
FGAF Dgfe|dAAA FDAG|FDAF E2 FG|
ABAG FDDE|[1FGAF D2 (3ABc:|[2FGAF D2 ed||
cAAA cAGE|cBcd efed|cAAA cAAG|
EFGE D2ed|cAAA cAGE|cBcd efee|
fded cAAG|[1EFGE D2ed:|[2EFGE D2 (3ABc||
